X: 4
T: Tommy's Tarbukas
R: reel
M: 4/4
L: 1/8
K: Amin
(3Bcd|:e2 de cAAc|BGdG eGdG|e2 de cAAc|BGdB cAcd|
|e2 de cAAc|BGdG eGdG|e2 ce BGGB|1 Aaed cAcd:|2 Aaed cAAG|
|:EAcA FAdc|Bdgf egge|EAcA FAdc|BgdB cAAG|
|EAcA FAdc|Bdgf egge|gecf dBGF|1 EA^GB cAA=G:|2 EA^GB cAcd|


Tune 140	Setting 12761

